X:1
T:Telemann - Viola Concerto 4th Movement 
T:Mehrzad Zamini
T:Presto
%%score 1 { ( 2 4 6 ) | ( 3 5 7 ) }
L:1/8
Q:1/4=214
M:4/4
K:D
V:1 alto nm="Viola" snm="Vla."
V:2 treble nm="Piano" snm="Pno."
V:4 treble 
V:6 treble 
V:3 bass 
V:5 bass 
V:7 bass 
V:1
 z8[Q:1/4=160] | z8 | z8 | z8 | z8 | z8 | z8 | z8 | z8 | z8 | z8 | z8 | z4 z2 D2 | G4 F4 | %14
 G2 FE D=CB,A, | G,2 B,2 D2 A2 | B2 G2 z2 A2 | BAGA B=cBc | =CDEF GABG | AGFG ABAB | B,=CDE FGAF | %21
 GFEF GAGA | A,B,CD EFGE | F2 D2 z2 A,2 | B,2 D2 G,2 F,2 | E,2 CD E2 C2 | A,2 C2 F,2 E,2 | %27
 D,2 B,C D2 B,2 | G,2 B,2 E,2 D,3/2 z/4 [C,A,]/4 | [A,G]6 A2 | F2 ED .A,2 .C2 | D2 A2 A4 | %32
 z2 A2 A4 | z2 A2 A4 | z FGA FAGA | BGAB GBAB | cABc AcBc | dBcd Bdcd | ecde cede | f2 d4 B2- | %40
 B2 G2- GBcd | e2 c4 A2- | A2 F2- FABc | dBcd edcB | cdcB AGFE | F2 d2 E2 c2 | d6[Q:1/4=214] z2 | %47
 z8 | z8 | z8 | z8 | z8 | z8 | z8 | z8 | z8 | z8 | z8 | z4 z2 D2 | G4 F4 | G2 FE D=CB,A, | %61
 G,2 B,2 D2 A2 | B2 G2 z2 A2 | BAGA B=cBc | =CDEF GABG | AGFG ABAB | B,=CDE FGAF | GFEF GAGA | %68
 A,B,CD EFGE | F2 D2 z2 A,2 | B,2 D2 G,2 F,2 | E,2 CD E2 C2 | A,2 C2 F,2 E,2 | D,2 B,C D2 B,2 | %74
 G,2 B,2 E,2 D,3/2 z/4 [C,A,]/4 | [A,G]6 A2 | F2 ED .A,2 .C2 | D2 A2 A4 | z2 A2 A4 | z2 A2 A4 | %80
 z FGA FAGA | BGAB GBAB | cABc AcBc | dBcd Bdcd | ecde cede | f2 d4 B2- | B2 G2- GBcd | e2 c4 A2- | %88
 A2 F2- FABc | dBcd edcB | cdcB AGFE | F2 d2 E2 c2 | d6 z2 | z8 | z8 | z8 | z4 z2 E2 | B4 A4 | %98
 GED=C B,A,G,F, | E,2 G,2 B,2 F2 | G2 E2 z2 B2 | =cEDE =FcFc | BD=CD EBEB | AB=cA cAcA | %104
 EA/B/ =cA cAcA | =FA/B/ =cA cAcA | DA/B/ =cA cAcA | ^A6 =c2 | =F2 ^A2 =C2 =A2 | ^A=cdc A=A^GA | %110
 ^GABG ED=CB, | =CB,A,C B,2 ^G2 | A3 B B3 A | [EA]4 z4 | z8 | z8 | z4 z2 A2 | d4 c4 | d2 cB AGFE | %119
 D2 F2 A2 e2 | f2 d2 z2 f2 | g2 B2 =c2 e2 | f2 de f2 B2 | e2 G2 A2 =c2 | d2 B=c d2 G2 | %125
 =c2 E2 F2 A2 | B2 D2 G2 B2 | =C2 A2 A,2 C2 | B,2 G2 G,2 B,-(3:2:2B,[A,F]/ | [F=c]6 c2 | %130
 B2 AG D2 F2 | G2 D2 D4 | z2 D2 D4 | z2 D2 D4 | z B,=CD B,DCD | E=CDE CEDE | FDEF DFEF | %137
 GEFG EGFG | AFGA FAGA | B2 G4 E2- | E2 =c2- cBcB | A2 F4 D2- | D2 B2- BABA | GEFG AGFE | %144
 FGFE D=CB,A, | G,2 B2 E2 G2 | A,2 =C2 E2 G,2 | F,2 A2 D2 F2 | G,2 B,2 D2 F,2 | E,2 D2 C2 G2 | %150
 D,2 DE FDEF | G2 B2 D2 F2 | G,6 z2 | z8 | z8 | z8 | z4 z2 E2 | B4 A4 | GED=C B,A,G,F, | %159
 E,2 G,2 B,2 F2 | G2 E2 z2 B2 | =cEDE =FcFc | BD=CD EBEB | AB=cA cAcA | EA/B/ =cA cAcA | %165
 =FA/B/ =cA cAcA | DA/B/ =cA cAcA | ^A6 =c2 | =F2 ^A2 =C2 =A2 | ^A=cdc A=A^GA | ^GABG ED=CB, | %171
 =CB,A,C B,2 ^G2 | A3 B B3 A | [EA]4 z4 | z8 | z8 | z4 z2 A2 | d4 c4 | d2 cB AGFE | D2 F2 A2 e2 | %180
 f2 d2 z2 f2 | g2 B2 =c2 e2 | f2 de f2 B2 | e2 G2 A2 =c2 | d2 B=c d2 G2 | =c2 E2 F2 A2 | %186
 B2 D2 G2 B2 | =C2 A2 A,2 C2 | B,2 G2 G,2 B,-(3:2:2B,[A,F]/ | [F=c]6 c2 | B2 AG D2 F2 | G2 D2 D4 | %192
 z2 D2 D4 | z2 D2 D4 | z B,=CD B,DCD | E=CDE CEDE | FDEF DFEF | GEFG EGFG | AFGA FAGA | B2 G4 E2- | %200
 E2 =c2- cBcB | A2 F4 D2- | D2 B2- BABA | GEFG AGFE | FGFE D=CB,A, | G,2 B2 E2 G2 | %206
 A,2 =C2 E2 G,2 | F,2 A2 D2 F2 | G,2 B,2 D2 F,2 | E,2 D2 C2 G2 | D,2 DE FDEF | G2 B2 D2 F2 | %212
 G,6 z2 |] %213
V:2
 z4 z2 [Bd]2 | [Bdg]4 [Adf]4 | [Bdg]2 fe d=cBA | G2 B2 [Ad]2 a2 | [Bdb]2 [Bdg]2 z2 [dfa]2 | %5
 [dgb]2 g2- [eg]2 e2- | [=ce]2 [Ec]4 .[cf]2 | [=ca]2 [cf]4 d2- | [Bd]2 [DB]4 .[Be]2 | %9
 .[Bg]2 .f2 .[ea]2 .[cf]2 | .[Af]2 fe d=cBA | [DB]=cdc [DFB]AGF | [G,B,G]6 z2 | [DG]4 F4 | %14
 [B,G]4 z4 | G,4 [A,D]4 | [B,DG]4 z2 [DFA]2 | z2 G4 B2- | B2 =C4 z2 | A2 z2 z4 | %20
 B,2[K:bass] z2 z2[K:treble] F2 | G2 z2 z4 | A,2[K:bass] z2 z2[K:treble] E2 | %23
 [DF]2 [F,A,D]4 [A,DF]2 | [B,DG]4 z4 | [A,EG]4 z4 | [A,CF]4 z4 | [B,DF]4 z4 | [B,EG]4 z4 | %29
 [A,CE]6 [CEA]2 | F2 B,2 C2 A2 | [FAd]4 [EAc]4 | [FAd]2 cB AGFE | D2 F2 [EA]2 e2 | %34
 [Adf]2 [FAd]2 z2 [DFA]2 | [DB]4 z2 [EB]2 | [Ec]4 z2 [Fc]2 | [Fd]4 z2 [Gd]2 | [Ge]4 z2 [EAe]2 | %39
 [FAf]4 z4 | [EGB]4 [B,EG]4 | [EGe]4 [EAc]4 | z4 F2 d2- | d2 B4 e2- | e2 A4 z2 | %45
 [A,DF]2 [Dd]2 [B,E]2 [EAc]2 | [FAd]6 [Bd]2 | [Bdg]4 [Adf]4 | [Bdg]2 fe d=cBA | G2 B2 [Ad]2 a2 | %50
 [Bdb]2 [Bdg]2 z2 [dfa]2 | [dgb]2 g2- [eg]2 e2- | [=ce]2 [Ec]4 .[cf]2 | [=ca]2 [cf]4 d2- | %54
 [Bd]2 [DB]4 .[Be]2 | .[Bg]2 .f2 .[ea]2 .[cf]2 | .[Af]2 fe d=cBA | [DB]=cdc [DFB]AGF | %58
 [G,B,G]6 z2 | [DG]4 F4 | [B,G]4 z4 | G,4 [A,D]4 | [B,DG]4 z2 [DFA]2 | z2 G4 B2- | B2 =C4 z2 | %65
 A2 z2 z4 | B,2[K:bass] z2 z2[K:treble] F2 | G2 z2 z4 | A,2[K:bass] z2 z2[K:treble] E2 | %69
 [DF]2 [F,A,D]4 [A,DF]2 | [B,DG]4 z4 | [A,EG]4 z4 | [A,CF]4 z4 | [B,DF]4 z4 | [B,EG]4 z4 | %75
 [A,CE]6 [CEA]2 | F2 B,2 C2 A2 | [FAd]4 [EAc]4 | [FAd]2 cB AGFE | D2 F2 [EA]2 e2 | %80
 [Adf]2 [FAd]2 z2 [DFA]2 | [DB]4 z2 [EB]2 | [Ec]4 z2 [Fc]2 | [Fd]4 z2 [Gd]2 | [Ge]4 z2 [EAe]2 | %85
 [FAf]4 z4 | [EGB]4 [B,EG]4 | [EGe]4 [EAc]4 | z4 F2 d2- | d2 B4 e2- | e2 A4 z2 | %91
 [A,DF]2 [Dd]2 [B,E]2 [EAc]2 | [FAd]6 [FAd]2 | a2- [ca]2 g2- [eg]2 | [Adf]dcB AGFE | %95
 D2 z2 [EA]2 z2 | [Adf]2 [FAd]2 z4 | F4 E2 F2 | G2 z2 z4 | G,4 [F,B,]4 | [G,B,G]4 z2 [E^GB]2 | %101
 [EA=c]4 z4 | .[B,B]4 [G,E]4 | [=C=FA]4 z4 | [A,EA]4 z4 | [=C=F=c]4 z4 | [DAd]4 =c4 | [=F^A]6 ^D2 | %108
 =F2 D2 [=CA]4 | [^A,=F^A]8 | [B,^G]8 | A2- [EA]2 =F2 E2- | E2 =C2[K:bass] E,,2[K:treble] [^Ge]2 | %113
 [A=cea]4 [Be^g]4 | [=cea]2 g=f edcB | A2 z2 [Be]2 z2 | [=cea=c']2 [cea]2 A,2 G,2 | [DFA]4 [CEA]4 | %118
 [DFA]4 z4 | [DF]4 [EA]4 | [FAd]4 z2 [FAd]2 | z4 =c4- | c4 B4- | B4 A4- | A4 G4- | G4 z4 | %126
 [B,G]4 z4 | [A,DA]4 z4 | [B,DG]4 z4 | [A,DF]2 z2 z2 A2 | B2 E2 [FA]2 [FAd]2 | [GBdg]4 [Adf]4 | %132
 [Bdg]2 fe d=cBA | G2 z2 [Ad]2 z2 | [dgb]2 [Bdg]2 z2 D2 | E4 z2 E2 | F4 z2 F2 | G4 z2 G2 | %138
 A4 z2 [DA]2 | [DGB]4 [EGB]4 | [=CE]4 [CE=c]4 | [=CDA]4 [CDF]4 | [B,D]4 [B,DB]4 | [B,EG]4 [A,EA]4 | %144
 [A,DF]4 z2 [dfa]2 | [dgb]2 g2- [eg]2 e2- | [=ce]2 E2 A2 .f2 | a2 f2- [df]2 d2- | %148
 [Bd]2 D2 [G,G]2 ef | gefg .[ea]2 .[cf]2 | .f2 z2 z2 .[FB]2 | B=cdc BAGF | [B,DG]6 [FAd]2 | %153
 a2- [ca]2 g2- [eg]2 | [Adf]dcB AGFE | D2 z2 [EA]2 z2 | [Adf]2 [FAd]2 z4 | F4 E2 F2 | G2 z2 z4 | %159
 G,4 [F,B,]4 | [G,B,G]4 z2 [E^GB]2 | [EA=c]4 z4 | .[B,B]4 [G,E]4 | [=C=FA]4 z4 | [A,EA]4 z4 | %165
 [=C=F=c]4 z4 | [DAd]4 =c4 | [=F^A]6 ^D2 | =F2 D2 [=CA]4 | [^A,=F^A]8 | [B,^G]8 | %171
 A2- [EA]2 =F2 E2- | E2 =C2[K:bass] E,,2[K:treble] [^Ge]2 | [A=cea]4 [Be^g]4 | [=cea]2 g=f edcB | %175
 A2 z2 [Be]2 z2 | [=cea=c']2 [cea]2 A,2 G,2 | [DFA]4 [CEA]4 | [DFA]4 z4 | [DF]4 [EA]4 | %180
 [FAd]4 z2 [FAd]2 | z4 =c4- | c4 B4- | B4 A4- | A4 G4- | G4 z4 | [B,G]4 z4 | [A,DA]4 z4 | %188
 [B,DG]4 z4 | [A,DF]2 z2 z2 A2 | B2 E2 [FA]2 [FAd]2 | [GBdg]4 [Adf]4 | [Bdg]2 fe d=cBA | %193
 G2 z2 [Ad]2 z2 | [dgb]2 [Bdg]2 z2 D2 | E4 z2 E2 | F4 z2 F2 | G4 z2 G2 | A4 z2 [DA]2 | %199
 [DGB]4 [EGB]4 | [=CE]4 [CE=c]4 | [=CDA]4 [CDF]4 | [B,D]4 [B,DB]4 | [B,EG]4 [A,EA]4 | %204
 [A,DF]4 z2 [dfa]2 | [dgb]2 g2- [eg]2 e2- | [=ce]2 E2 A2 .f2 | a2 f2- [df]2 d2- | %208
 [Bd]2 D2 [G,G]2 ef | gefg .[ea]2 .[cf]2 | .f2 z2 z2 .[FB]2 | B=cdc BAGF | [B,DG]6 z2 |] %213
V:3
 z4 z2 G,,2 | B,,2 G,,2 D,2 D,,2 | G,,2 F,E, D,=C,B,,A,, | [G,,G,]4 [F,,F,]4 | %4
 [G,,G,]2 [G,,G,]2 z2 D,2 | G,2 B,2 E,2 G,2 | A,2 A,,2 z[K:treble] e z g | F,2 A,2 D,2 F,2 | %8
 G,2 G,,2 z[K:treble] d z f | z e z g[K:bass] z g z[K:treble] e | z g[K:bass] E,2 F,2 D,2 | %11
 [G,,G,]4 [D,F,]4 | G,,6 G,2 | B,2 G,2 D2 D,2 | G,4 z4 | G,,4 F,,4 | G,,4 z2 [D,,D,]2 | %17
 z2 [B,D]4 D2 | z2 G,4 =C2- | C2 [A,=C]4 C2 | z2 [F,A,]4 B,2- | B,2 [G,B,]4 B,2 | z2 G,4 A,2- | %23
 A,2 z2 z4 | G,,4 z4 | [C,,C,]4 z4 | F,,4 z4 | [B,,,B,,]4 z4 | [E,,E,]4 z4 | A,,2 B,,2 C,2 A,,2 | %30
 [D,,D,]2 G,,2 A,,2 [A,,A,]2 | [F,,F,]2 [D,,D,]2 [A,,A,]2 A,,2 | [D,,D,]2 C,B,, A,,G,,F,,E,, | %33
 [D,,D,]4 [C,,C,]4 | [D,,D,]2 [D,,D,]2 z2 [D,,D,]2 | G,,4 z2 G,,2 | A,,4 z2 A,,2 | B,,4 z2 B,,2 | %38
 C,4 z2 [C,,C,]2 | [D,,D,]2 F,,2 B,,2 D,2 | E,2 E,,2 E,2 D,2 | C,2 E,2 A,,2 C,2 | %42
 D,2 D,,2 D,2 C,2 | B,,2 A,,2 ^G,,2 E,,2 | [A,,,A,,]2 [B,,,B,,]2 [C,,C,]2 [A,,,A,,]2 | %45
 [D,,D,]2 F,,2 G,,2 A,,2 | [D,,D,]6 G,,2 | B,,2 G,,2 D,2 D,,2 | G,,2 F,E, D,=C,B,,A,, | %49
 [G,,G,]4 [F,,F,]4 | [G,,G,]2 [G,,G,]2 z2 D,2 | G,2 B,2 E,2 G,2 | A,2 A,,2 z[K:treble] e z g | %53
 F,2 A,2 D,2 F,2 | G,2 G,,2 z[K:treble] d z f | z e z g[K:bass] z g z[K:treble] e | %56
 z g[K:bass] E,2 F,2 D,2 | [G,,G,]4 [D,F,]4 | G,,6 G,2 | B,2 G,2 D2 D,2 | G,4 z4 | G,,4 F,,4 | %62
 G,,4 z2 [D,,D,]2 | z2 [B,D]4 D2 | z2 G,4 =C2- | C2 [A,=C]4 C2 | z2 [F,A,]4 B,2- | %67
 B,2 [G,B,]4 B,2 | z2 G,4 A,2- | A,2 z2 z4 | G,,4 z4 | [C,,C,]4 z4 | F,,4 z4 | [B,,,B,,]4 z4 | %74
 [E,,E,]4 z4 | A,,2 B,,2 C,2 A,,2 | [D,,D,]2 G,,2 A,,2 [A,,A,]2 | [F,,F,]2 [D,,D,]2 [A,,A,]2 A,,2 | %78
 [D,,D,]2 C,B,, A,,G,,F,,E,, | [D,,D,]4 [C,,C,]4 | [D,,D,]2 [D,,D,]2 z2 [D,,D,]2 | G,,4 z2 G,,2 | %82
 A,,4 z2 A,,2 | B,,4 z2 B,,2 | C,4 z2 [C,,C,]2 | [D,,D,]2 F,,2 B,,2 D,2 | E,2 E,,2 E,2 D,2 | %87
 C,2 E,2 A,,2 C,2 | D,2 D,,2 D,2 C,2 | B,,2 A,,2 ^G,,2 E,,2 | %90
 [A,,,A,,]2 [B,,,B,,]2 [C,,C,]2 [A,,,A,,]2 | [D,,D,]2 F,,2 G,,2 A,,2 | [D,,D,]6 [D,D]2 | %93
 [C,C]2 [A,,A,]2 [B,,B,]2 [C,C]2 | [D,D]DCB, A,G,F,E, | z2 F2 z2[K:treble] e2 | D,2 D,,2 z2 E,2 | %97
 ^D,2 B,,2 C,2 D,2 | [E,B,]2 z2 z4 | [E,,E,]4 [^D,,^D,]4 | [E,,E,]4 E2 E,2 | A,4 A,4 | %102
 [G,,G,]4 z4 | [=F,,=F,]4 z4 | [=C,,=C,]4 z4 | [A,,A,]4 z4 | [=F,,=F,]4 z4 | [D,,D,]6 [=C,,=C,]2 | %108
 [D,,D,]2 [^A,,,^A,,]2 [=F,,=F,]2 [^D,,^D,]2 | [D,,D,]8 | [E,,E,]6 E,,2 | A,,2 =C,2 D,2 E,2 | %112
 =C,2 A,,2 z2 [E,E]2 | [=C,=C]2 A,2 [E,E]2 E,2 | [A,,A,]2 G,=F, E,D,=C,B,, | %115
 z2[K:treble] =c2 z2 b2 | A,,2 A,,,2 A,,2 G,,2 | [F,,F,]2 D,2 A,,2 A,,2 | [D,,D,]4 z4 | %119
 [D,,D,]4 [C,,C,]4 | [D,,D,]4 z2 D,2 | E,4 E4 | [D,A,]4 D4 | [=C,G,]4 =C4 | [B,,F,]4 B,4 | %125
 [A,,E,]4 A,4 | [G,,D,]4 z4 | F,,4 z4 | G,,4 z4 | z4 z2 F,2 | z8 | [B,,B,]2 G,2 [D,D]2 D,2 | %132
 [G,,G,]2 F,E, D,=C,B,,A,, | z2[K:treble] B2 z2 a2 | G,,2 G,,,2 z2 B,,2 | =C,4 z2 C,2 | %136
 D,4 z2 D,2 | E,4 z2 E,2 | F,4 z2 [F,,F,]2 | [G,,G,]2 B,,2 [E,,E,]2 [G,,G,]2 | %140
 [A,,A,]2 A,,2 [A,,A,]2 [G,,G,]2 | [F,,F,]2 A,,2 [D,,D,]2 [F,,F,]2 | %142
 [G,,G,]2 G,,2 [G,,G,]2 [F,,F,]2 | [E,,E,]2 [D,,D,]2 [C,,C,]2 [A,,,A,,]2 | [D,,D,]4 z2 D,2 | %145
 [G,,G,]2 B,,2 [E,,E,]2 G,,2 | A,,2 A,,,2 z[K:treble] e z g | F,,2 A,,2 [D,,D,]2 F,,2 | %148
 G,,2 G,,2 z[K:treble] d[K:bass] [F,,F,]2 | [E,,E,]2 [D,,D,]2 z[K:treble] g z e | %150
 z[K:treble] gfe d=c[K:bass] z A | [G,,G,]4 [D,,D,]4 | [G,,,G,,]6 [D,D]2 | %153
 [C,C]2 [A,,A,]2 [B,,B,]2 [C,C]2 | [D,D]DCB, A,G,F,E, | z2 F2 z2[K:treble] e2 | D,2 D,,2 z2 E,2 | %157
 ^D,2 B,,2 C,2 D,2 | [E,B,]2 z2 z4 | [E,,E,]4 [^D,,^D,]4 | [E,,E,]4 E2 E,2 | A,4 A,4 | %162
 [G,,G,]4 z4 | [=F,,=F,]4 z4 | [=C,,=C,]4 z4 | [A,,A,]4 z4 | [=F,,=F,]4 z4 | [D,,D,]6 [=C,,=C,]2 | %168
 [D,,D,]2 [^A,,,^A,,]2 [=F,,=F,]2 [^D,,^D,]2 | [D,,D,]8 | [E,,E,]6 E,,2 | A,,2 =C,2 D,2 E,2 | %172
 =C,2 A,,2 z2 [E,E]2 | [=C,=C]2 A,2 [E,E]2 E,2 | [A,,A,]2 G,=F, E,D,=C,B,, | %175
 z2[K:treble] =c2 z2 b2 | A,,2 A,,,2 A,,2 G,,2 | [F,,F,]2 D,2 A,,2 A,,2 | [D,,D,]4 z4 | %179
 [D,,D,]4 [C,,C,]4 | [D,,D,]4 z2 D,2 | E,4 E4 | [D,A,]4 D4 | [=C,G,]4 =C4 | [B,,F,]4 B,4 | %185
 [A,,E,]4 A,4 | [G,,D,]4 z4 | F,,4 z4 | G,,4 z4 | z4 z2 F,2 | z8 | [B,,B,]2 G,2 [D,D]2 D,2 | %192
 [G,,G,]2 F,E, D,=C,B,,A,, | z2[K:treble] B2 z2 a2 | G,,2 G,,,2 z2 B,,2 | =C,4 z2 C,2 | %196
 D,4 z2 D,2 | E,4 z2 E,2 | F,4 z2 [F,,F,]2 | [G,,G,]2 B,,2 [E,,E,]2 [G,,G,]2 | %200
 [A,,A,]2 A,,2 [A,,A,]2 [G,,G,]2 | [F,,F,]2 A,,2 [D,,D,]2 [F,,F,]2 | %202
 [G,,G,]2 G,,2 [G,,G,]2 [F,,F,]2 | [E,,E,]2 [D,,D,]2 [C,,C,]2 [A,,,A,,]2 | [D,,D,]4 z2 D,2 | %205
 [G,,G,]2 B,,2 [E,,E,]2 G,,2 | A,,2 A,,,2 z[K:treble] e z g | F,,2 A,,2 [D,,D,]2 F,,2 | %208
 G,,2 G,,2 z[K:treble] d[K:bass] [F,,F,]2 | [E,,E,]2 [D,,D,]2 z[K:treble] g z e | %210
 z[K:treble] gfe d=c[K:bass] z A | [G,,G,]4 [D,,D,]4 | [G,,,G,,]6 z2 |] %213
V:4
 x8 | x8 | x8 | x8 | x8 | z2 d2 z2 B2 | x8 | z4 z2 A2 | x8 | x8 | x8 | x8 | x8 | x8 | x8 | x8 | %16
 x8 | [DGB]2 z2 z4 | =C2 z2 z2 G2 | z2 F4 A2- | A2[K:bass] B,4[K:treble] z2 | z2 E4 G2- | %22
 G2[K:bass] A,4[K:treble] z2 | x8 | x8 | x8 | x8 | x8 | x8 | x8 | x8 | x8 | x8 | x8 | x8 | x8 | %36
 x8 | x8 | x8 | z2 F,2 [FBd]4 | x8 | x8 | [DFA]4 D4 | x8 | [EAc]2 z2 z GFE | x8 | x8 | x8 | x8 | %49
 x8 | x8 | z2 d2 z2 B2 | x8 | z4 z2 A2 | x8 | x8 | x8 | x8 | x8 | x8 | x8 | x8 | x8 | %63
 [DGB]2 z2 z4 | =C2 z2 z2 G2 | z2 F4 A2- | A2[K:bass] B,4[K:treble] z2 | z2 E4 G2- | %68
 G2[K:bass] A,4[K:treble] z2 | x8 | x8 | x8 | x8 | x8 | x8 | x8 | x8 | x8 | x8 | x8 | x8 | x8 | %82
 x8 | x8 | x8 | z2 F,2 [FBd]4 | x8 | x8 | [DFA]4 D4 | x8 | [EAc]2 z2 z GFE | x8 | x8 | %93
 [Ae]2 z2 [Gd]2 z2 | x8 | x8 | x8 | x8 | x8 | x8 | x8 | z4 =F4- | F4 z4 | x8 | x8 | x8 | x8 | x8 | %108
 x8 | x8 | z4 z2 E,2 | [A,=C]2 z2 z4 | x4[K:bass] x2[K:treble] x2 | x8 | x8 | x8 | x8 | z4 A,2 z2 | %118
 x8 | x8 | x8 | [EGB]4 z4 | F4 z4 | E4 z4 | D4 z4 | =C4 F4 | x8 | x8 | x8 | x8 | x8 | x8 | x8 | %133
 x8 | z4 z2 G2- | G4 z2 A2- | A4 z2 B2- | B4 z2 =c2- | c4 z4 | x8 | x8 | x8 | x8 | x8 | x8 | %145
 z2 d2 z2 B2 | z2 =c4 c2- | c2 =c2 z2 A2 | z2 B4 B2 | B2 B2 z4 | A6 z2 | [DG]4 [=CF]4 | x8 | %153
 [Ae]2 z2 [Gd]2 z2 | x8 | x8 | x8 | x8 | x8 | x8 | x8 | z4 =F4- | F4 z4 | x8 | x8 | x8 | x8 | x8 | %168
 x8 | x8 | z4 z2 E,2 | [A,=C]2 z2 z4 | x4[K:bass] x2[K:treble] x2 | x8 | x8 | x8 | x8 | z4 A,2 z2 | %178
 x8 | x8 | x8 | [EGB]4 z4 | F4 z4 | E4 z4 | D4 z4 | =C4 F4 | x8 | x8 | x8 | x8 | x8 | x8 | x8 | %193
 x8 | z4 z2 G2- | G4 z2 A2- | A4 z2 B2- | B4 z2 =c2- | c4 z4 | x8 | x8 | x8 | x8 | x8 | x8 | %205
 z2 d2 z2 B2 | z2 =c4 c2- | c2 =c2 z2 A2 | z2 B4 B2 | B2 B2 z4 | A6 z2 | [DG]4 [=CF]4 | x8 |] %213
V:5
 x8 | x8 | x8 | x8 | x8 | x8 | z4 A,2[K:treble] G,2 | x8 | z4 G,2[K:treble] F,2 | %9
 E,2 D,2[K:bass] C,2 A,,2[K:treble] | D,2[K:bass] z2 z4 | x8 | x8 | x8 | x8 | x8 | x8 | z4 z2 G2- | %18
 G2 z2 z4 | z4 z2 F2- | F2 z2 z4 | z4 z2 E2- | E2 z2 z4 | [D,,D,]4 F,,2 D,,2 | x8 | x8 | x8 | x8 | %28
 x8 | x8 | x8 | x8 | x8 | x8 | x8 | x8 | x8 | x8 | x8 | x8 | x8 | x8 | x8 | x8 | x8 | x8 | x8 | %47
 x8 | x8 | x8 | x8 | x8 | z4 A,2[K:treble] G,2 | x8 | z4 G,2[K:treble] F,2 | %55
 E,2 D,2[K:bass] C,2 A,,2[K:treble] | D,2[K:bass] z2 z4 | x8 | x8 | x8 | x8 | x8 | x8 | z4 z2 G2- | %64
 G2 z2 z4 | z4 z2 F2- | F2 z2 z4 | z4 z2 E2- | E2 z2 z4 | [D,,D,]4 F,,2 D,,2 | x8 | x8 | x8 | x8 | %74
 x8 | x8 | x8 | x8 | x8 | x8 | x8 | x8 | x8 | x8 | x8 | x8 | x8 | x8 | x8 | x8 | x8 | x8 | x8 | %93
 x8 | x8 | D,4 C,4[K:treble] | x8 | x8 | x8 | x8 | x8 | x8 | x8 | x8 | x8 | x8 | x8 | x8 | x8 | %109
 x8 | x8 | x8 | x8 | x8 | x8 | A,,4[K:treble] ^G,,4 | x8 | x8 | x8 | x8 | x8 | x8 | x8 | x8 | x8 | %125
 x8 | x8 | x8 | x8 | [D,,D,]2 z2 z2 D2- | [G,D]2 =C,2 [D,D]2 [D,D]2 | x8 | x8 | %133
 G,,4[K:treble] F,,4 | x8 | x8 | x8 | x8 | x8 | x8 | x8 | x8 | x8 | x8 | x8 | x8 | %146
 z4 A,,2[K:treble] G,,2 | x8 | z4 G,,2[K:treble][K:bass] z2 | z4 [C,,C,]2[K:treble] A,,2 | %150
 [D,,D,]6[K:treble][K:bass] D,2 | x8 | x8 | x8 | x8 | D,4 C,4[K:treble] | x8 | x8 | x8 | x8 | x8 | %161
 x8 | x8 | x8 | x8 | x8 | x8 | x8 | x8 | x8 | x8 | x8 | x8 | x8 | x8 | A,,4[K:treble] ^G,,4 | x8 | %177
 x8 | x8 | x8 | x8 | x8 | x8 | x8 | x8 | x8 | x8 | x8 | x8 | [D,,D,]2 z2 z2 D2- | %190
 [G,D]2 =C,2 [D,D]2 [D,D]2 | x8 | x8 | G,,4[K:treble] F,,4 | x8 | x8 | x8 | x8 | x8 | x8 | x8 | %201
 x8 | x8 | x8 | x8 | x8 | z4 A,,2[K:treble] G,,2 | x8 | z4 G,,2[K:treble][K:bass] z2 | %209
 z4 [C,,C,]2[K:treble] A,,2 | [D,,D,]6[K:treble][K:bass] D,2 | x8 | x8 |] %213
V:6
 x8 | x8 | x8 | x8 | x8 | x8 | x8 | x8 | x8 | x8 | x8 | x8 | x8 | x8 | x8 | x8 | x8 | z4 G,4 | %18
 z4 E,4 | z4 F,4 | z4[K:bass] D,4[K:treble] | z4 E,4 | z4[K:bass] C,4[K:treble] | x8 | x8 | x8 | %26
 x8 | x8 | x8 | x8 | x8 | x8 | x8 | x8 | x8 | x8 | x8 | x8 | x8 | x8 | x8 | x8 | x8 | [DF]4 E4 | %44
 z4 A,4 | x8 | x8 | x8 | x8 | x8 | x8 | x8 | x8 | x8 | x8 | x8 | x8 | x8 | x8 | x8 | x8 | x8 | x8 | %63
 z4 G,4 | z4 E,4 | z4 F,4 | z4[K:bass] D,4[K:treble] | z4 E,4 | z4[K:bass] C,4[K:treble] | x8 | %70
 x8 | x8 | x8 | x8 | x8 | x8 | x8 | x8 | x8 | x8 | x8 | x8 | x8 | x8 | x8 | x8 | x8 | x8 | x8 | %89
 [DF]4 E4 | z4 A,4 | x8 | x8 | x8 | x8 | x8 | x8 | x8 | x8 | x8 | x8 | x8 | x8 | x8 | x8 | x8 | %106
 x8 | x8 | x8 | x8 | x8 | x8 | x4[K:bass] x2[K:treble] x2 | x8 | x8 | x8 | x8 | x8 | x8 | x8 | x8 | %121
 x8 | x8 | x8 | x8 | x8 | x8 | x8 | x8 | x8 | x8 | x8 | x8 | x8 | x8 | x8 | x8 | x8 | x8 | x8 | %140
 x8 | x8 | x8 | x8 | x8 | x8 | x8 | x8 | x8 | x8 | x8 | x8 | x8 | x8 | x8 | x8 | x8 | x8 | x8 | %159
 x8 | x8 | x8 | x8 | x8 | x8 | x8 | x8 | x8 | x8 | x8 | x8 | x8 | x4[K:bass] x2[K:treble] x2 | x8 | %174
 x8 | x8 | x8 | x8 | x8 | x8 | x8 | x8 | x8 | x8 | x8 | x8 | x8 | x8 | x8 | x8 | x8 | x8 | x8 | %193
 x8 | x8 | x8 | x8 | x8 | x8 | x8 | x8 | x8 | x8 | x8 | x8 | x8 | x8 | x8 | x8 | x8 | x8 | x8 | %212
 x8 |] %213
V:7
 x8 | x8 | x8 | x8 | x8 | x8 | x5[K:treble] x3 | x8 | x5[K:treble] x3 | x4[K:bass] x3[K:treble] x | %10
 x2[K:bass] x6 | x8 | x8 | x8 | x8 | x8 | x8 | [G,,G,]4 G,,4 | [E,,E,]4 E,,4 | [F,,F,]4 F,,4 | %20
 [D,,D,]4 D,,4 | [E,,E,]4 E,,4 | [C,,C,]4 C,,4 | x8 | x8 | x8 | x8 | x8 | x8 | x8 | x8 | x8 | x8 | %33
 x8 | x8 | x8 | x8 | x8 | x8 | x8 | x8 | x8 | x8 | x8 | x8 | x8 | x8 | x8 | x8 | x8 | x8 | x8 | %52
 x5[K:treble] x3 | x8 | x5[K:treble] x3 | x4[K:bass] x3[K:treble] x | x2[K:bass] x6 | x8 | x8 | %59
 x8 | x8 | x8 | x8 | [G,,G,]4 G,,4 | [E,,E,]4 E,,4 | [F,,F,]4 F,,4 | [D,,D,]4 D,,4 | %67
 [E,,E,]4 E,,4 | [C,,C,]4 C,,4 | x8 | x8 | x8 | x8 | x8 | x8 | x8 | x8 | x8 | x8 | x8 | x8 | x8 | %82
 x8 | x8 | x8 | x8 | x8 | x8 | x8 | x8 | x8 | x8 | x8 | x8 | x8 | x6[K:treble] x2 | x8 | x8 | x8 | %99
 x8 | x8 | x8 | x8 | x8 | x8 | x8 | x8 | x8 | x8 | x8 | x8 | x8 | x8 | x8 | x8 | x2[K:treble] x6 | %116
 x8 | x8 | x8 | x8 | x8 | x8 | x8 | x8 | x8 | x8 | x8 | x8 | x8 | x8 | x8 | x8 | x8 | %133
 x2[K:treble] x6 | x8 | x8 | x8 | x8 | x8 | x8 | x8 | x8 | x8 | x8 | x8 | x8 | x5[K:treble] x3 | %147
 x8 | x5[K:treble] x[K:bass] x2 | x5[K:treble] x3 | x[K:treble] x5[K:bass] x2 | x8 | x8 | x8 | x8 | %155
 x6[K:treble] x2 | x8 | x8 | x8 | x8 | x8 | x8 | x8 | x8 | x8 | x8 | x8 | x8 | x8 | x8 | x8 | x8 | %172
 x8 | x8 | x8 | x2[K:treble] x6 | x8 | x8 | x8 | x8 | x8 | x8 | x8 | x8 | x8 | x8 | x8 | x8 | x8 | %189
 x8 | x8 | x8 | x8 | x2[K:treble] x6 | x8 | x8 | x8 | x8 | x8 | x8 | x8 | x8 | x8 | x8 | x8 | x8 | %206
 x5[K:treble] x3 | x8 | x5[K:treble] x[K:bass] x2 | x5[K:treble] x3 | x[K:treble] x5[K:bass] x2 | %211
 x8 | x8 |] %213

